X:371
T:Cottage by the Sea, The
M:C|
L:1/8
C:© Paul Gitlitz 2014
K:D
"D"A2FA dcBA|"G"B2GB gfed|"A"c2Ac agfe|"D"defd "G"BAGE|!
"D"F2DF dcBA|"G"G2EG gfed|"A"c2Ac agec|1"D"dfec "G"dcdB:|2"D"dfec d2ef|!
|:"G"gfge "A"cAag|"D"fefd BA^ga|"G"gfeg "D"fedf|"E"ea^gb "A"a2ef|!
"G"gfge "A"cAag|"D"fefd "G"BAdB|"A"A2FA "Bm"dcBA|1"A"dfec "D"d2ef:|2"A"dfec "D"d4|]
